src/assets/icons/home.svg

<svg width="16" height="16" viewBox="0 0 16 16" fill="none" xmlns="http://www.w3.org/2000/svg">
<g clip-path="url(#clip0_8874_15272)">
<path fill-rule="evenodd" clip-rule="evenodd" d="M7.83703 0.0185499C7.69062 0.0428656 7.52963 0.12196 7.39489 0.235776C7.18926 0.409509 0.692735 6.37065 0.586498 6.48309C0.31475 6.77073 0.13997 7.09887 0.0430012 7.50354C0.0120606 7.63268 0.00961981 7.83561 0.00369229 10.7885C-0.000748765 12.988 0.00341708 13.991 0.0174743 14.1192C0.125124 15.101 0.89851 15.8762 1.87497 15.9811C2.12283 16.0078 13.8781 16.0078 14.126 15.9811C15.099 15.8766 15.8781 15.0976 15.9826 14.1245C16.0093 13.8755 16.0089 7.93339 15.9821 7.69319C15.9331 7.25376 15.7379 6.8301 15.4358 6.50787C15.3172 6.38133 8.84565 0.438156 8.60609 0.235776C8.46546 0.116969 8.31234 0.0440768 8.1473 0.0173754C8.01161 -0.00459127 7.9756 -0.00444445 7.83703 0.0185499ZM4.95207 4.96225C3.28277 6.49161 1.90046 7.76955 1.88028 7.80214C1.84396 7.86077 1.84357 7.89338 1.84357 10.9202V13.9789L1.88141 14.0296C1.90222 14.0575 1.94205 14.0973 1.96992 14.1181L2.02061 14.1559H8.00049H13.9804L14.0311 14.1181C14.0589 14.0973 14.0988 14.0575 14.1196 14.0296L14.1574 13.9789V10.9202C14.1574 7.89338 14.157 7.86077 14.1207 7.80214C14.0852 7.74486 8.02737 2.18162 8.00049 2.18162C7.99317 2.18162 6.62138 3.43291 4.95207 4.96225Z" fill="currentColor"/>
</g>
<defs>
<clipPath id="clip0_8874_15272">
<rect width="16" height="16" fill="white" transform="translate(0 -0.000732422)"/>
</clipPath>
</defs>
</svg>

<svg xmlns="http://www.w3.org/2000/svg" width="16" height="16" fill="none">
  <g clip-path="url(#a)">
    <path fill="currentColor" fill-rule="evenodd" d="M7.837.019a.96.96 0 0 0-.442.217C7.189.41.693 6.37.586 6.483a2.168 2.168 0 0 0-.543 1.02c-.03.13-.033.333-.04 3.286-.004 2.199 0 3.202.014 3.33a2.1 2.1 0 0 0 1.858 1.862c.248.027 12.003.027 12.251 0a2.101 2.101 0 0 0 1.857-1.857c.026-.248.026-6.19 0-6.43a2.088 2.088 0 0 0-.547-1.186c-.119-.127-6.59-6.07-6.83-6.272a.936.936 0 0 0-.459-.219.722.722 0 0 0-.31.002ZM4.952 4.962C3.282 6.492 1.9 7.77 1.88 7.802c-.036.059-.036.091-.036 3.118v3.059l.037.05a.582.582 0 0 0 .089.09l.05.037h11.96l.051-.038a.526.526 0 0 0 .089-.088l.037-.051V10.92c0-3.027 0-3.06-.036-3.118-.036-.057-6.094-5.62-6.12-5.62-.008 0-1.38 1.25-3.049 2.78Z" clip-rule="evenodd"/>
  </g>
  <defs>
    <clipPath id="a">
      <path fill="#fff" d="M0 0h16v16H0z"/>
    </clipPath>
  </defs>
</svg>
